libs/icons/src/svg/marketing-outline.svg

<svg width="16" height="16" viewBox="0 0 16 16" fill="none" xmlns="http://www.w3.org/2000/svg">
<g clip-path="url(#clip0_3_1656)">
<path fill-rule="evenodd" clip-rule="evenodd" d="M13.0172 0.766239C13.2137 0.88771 13.3333 1.10229 13.3333 1.33334V12C13.3333 12.2311 13.2137 12.4456 13.0172 12.5671C12.8206 12.6886 12.5752 12.6996 12.3685 12.5963L7.22031 10.0222L8.52202 13.2529C8.71944 13.7447 8.71365 14.2947 8.50591 14.7822C8.29816 15.2696 7.90546 15.6548 7.41402 15.8529L7.16467 15.2346L7.41306 15.8533C6.92131 16.0508 6.37132 16.045 5.88384 15.8372C5.39667 15.6296 5.01173 15.2373 4.81344 14.7463L4.81306 14.7453L2.87161 9.96789C2.15815 9.86811 1.49157 9.53896 0.976311 9.02369C0.35119 8.39857 0 7.55073 0 6.66667C0 5.78262 0.35119 4.93477 0.976311 4.30965C1.60143 3.68453 2.44928 3.33334 3.33333 3.33334H7.17595L12.3685 0.737054C12.5752 0.633725 12.8206 0.644768 13.0172 0.766239ZM6.20797 8.66667C6.21854 8.66642 6.2291 8.66642 6.23962 8.66667H7.33333C7.43683 8.66667 7.53891 8.69077 7.63147 8.73705L12 10.9213V2.41203L7.63147 4.59629C7.53891 4.64258 7.43683 4.66667 7.33333 4.66667H3.33333C2.8029 4.66667 2.29419 4.87739 1.91912 5.25246C1.54405 5.62753 1.33333 6.13624 1.33333 6.66667C1.33333 7.1971 1.54405 7.70581 1.91912 8.08088C2.29092 8.45269 2.79404 8.66298 3.31946 8.66662L6.20797 8.66667ZM5.77388 10H4.32388L6.04963 14.2467C6.11569 14.4105 6.24406 14.5414 6.40656 14.6106C6.56888 14.6798 6.75199 14.6818 6.91577 14.6162C7.07939 14.5501 7.21012 14.4218 7.27931 14.2594C7.34853 14.097 7.35048 13.9138 7.28476 13.7499L5.77388 10ZM14 8.66667V4.66667C14.5304 4.66667 15.0391 4.87739 15.4142 5.25246C15.7893 5.62753 16 6.13624 16 6.66667C16 7.19711 15.7893 7.70581 15.4142 8.08089C15.0391 8.45596 14.5304 8.66667 14 8.66667Z" fill="#202327"/>
</g>
<defs>
<clipPath id="clip0_3_1656">
<rect width="16" height="16" fill="white"/>
</clipPath>
</defs>
</svg>

<svg xmlns="http://www.w3.org/2000/svg" viewBox="0 0 16 16" class="sageicon"><path fill-rule="evenodd" d="M13.017.766a.667.667 0 0 1 .316.567V12a.667.667 0 0 1-.965.596L7.22 10.022l1.302 3.23a2 2 0 0 1-1.108 2.6l-.25-.617.25.618a2 2 0 0 1-2.6-1.107L2.871 9.967a3.333 3.333 0 0 1 .461-6.635h3.843L12.368.737a.667.667 0 0 1 .65.03Zm-6.809 7.9h1.125c.104 0 .206.025.298.071L12 10.921V2.412L7.631 4.596a.667.667 0 0 1-.298.07h-4a2 2 0 0 0-.014 4h2.889ZM5.774 10h-1.45l1.726 4.247a.666.666 0 0 0 1.235-.497L5.774 10ZM14 8.667v-4a2 2 0 0 1 0 4Z"/></svg>
